!!!!SEGMENT: pl-kc--40102-iii-1-saf--002-004_zielenski-mikolaj--communiones-totius-anni-in-festo-purificationis-b-m-v-responsum-accepit.krn
!!!cenid: 16xx:1535
!!!COM: Zieleński, Mikołaj
!!!COM-rismid: pe30013481
!!!CDT:
!!!CNT: Polish
!!!GTL: Communiones totius anni
!!!OTL: In festo Purificationis B. M. V./Responsum accepit
!!!OMV: 004
!!!PDT: 1611
!!!AGN:
!!!SMS-siglum: PL-Kc
!!!SMS-shelfmark: 40102 III/1 Saf.
!!!SMS-shelfwork: 002-004 G
!!!SMS-variant:
!!!SMS-altvar:
!!!NIFC-rismid: 990069887
!!!URL-scan: https://cyfrowe.mnk.pl/dlibra/publication/24235/edition/23926/content?ref=desc
!!!ONB-nifc: UWAGA: str. 47-48. Uwaga: W xml metrum 2/1 do źródłowego C| i odpowiednio 3/1 do 3/2
**kern	**kern	**kern	**kern
*part2	*part2	*part1	*part1
*staff2	*staff2	*staff1	*staff1
*Iorgan	*Iempty	*Iorgan	*Iempty
*I"Organo	*	*I"Organo	*
*	*	*	*I'org
*ICklav	*	*ICklav	*
*clefC4	*clefC3	*clefC2	*clefG2
*k[]	*k[]	*k[]	*k[]
*C:	*C:	*C:	*C:
*M2/1	*M2/1	*M2/1	*M2/1
*met(c|)	*met(c|)	*met(c|)	*met(c|)
*>[A,A,B,B,C,C]	*	*	*
=1	=1	=1	=1
*>A	*	*	*
!	!LO:TX:b:t=Idem Alio Concerto, Trium vocum, Communio. 26.	!	!
*	*	*	*
!	!	!	!LO:TX:b:t=Reſponſum accepit
!	!	!	!LO:TX:a:t=In feſto Purificationis B. M. V.   Solus caner.
*	*	*	*
1r	1.g	0r	00r
[1c	.	.	.
.	2f\	.	.
=2	=2	=2	=2
2c\]	2e\	1r	.
2B\	2d\	.	.
2A/	2e\	[1cc	.
2A/	4d\	.	.
.	4c/	.	.
=3	=3	=3	=3
!	!	!LO:N:xstem:cue	!
1G	2e\	2cc\]	1.gg
.	2d\	2b\	.
2.A/	2c/	2a\	.
.	[2c/	2a\	2ff\
4B\	.	.	.
=4	=4	=4	=4
1c	4c/]	2g\	2ee\
.	4d\	.	.
.	4e\	1cc	2ee\
.	4f\	.	.
2r	1g	.	2.dd\
[2G/	.	4b\	.
.	.	4a\	4cc\
=5	=5	=5	=5
2G/]	2.d\	2b\	4b/
.	.	.	4g/
!	!	!	!
!LO:SIC:v:t=custos E	!LO:SIC:v:t=custos c	!LO:SIC:v:t=custos g	!LO:SIC:v:t=custos ee
2F/	.	2a\	2dd\
!	!	!	!
!	!	!	!
.	4G/	.	.
!!LO:LB:g=original
2E/	4c/	2g\	2ee\
.	4A/	.	.
2C/	2c/	1cc\	1aa\
=6	=6	=6	=6
1.D	2A/	.	.
.	2.d\	2b\	2.gg\
.	.	2.a\	.
.	4A/	.	8ff#X\
.	.	.	8ee\
2D/	[<2d\	.	2ff#\
.	.	4a\	.
=7	=7	=7	=7
2.G/	2d\]	2.b\	1gg
.	2.g\	.	.
4A/	.	4cc\	.
2B\	.	2dd\	2r
.	4f\	.	.
2c\	2e\	1g\	1cc\
=8	=8	=8	=8
2.G/	2d\	.	.
.	4e\	2g\	2b/
4G/	4d\	.	.
2A/	4c/	2e/	2a/
.	4A/	.	.
2E/	2e\	[2g\	2g/
=9	=9	=9	=9
!	!	!LO:N:xstem:cue	!
1A	2e\	4g\]	1cc
.	.	8f#X\	.
.	.	8e\	.
.	4d\	2f#\	.
.	4c/	.	.
2G/	2d\	1.g	2b/
4r	2.c/	.	2ee\
4C/	.	.	.
=10	=10	=10	=10
2C/	.	.	2ee\
.	4B/	.	.
2F/	4A/	2a\	2cc\
.	4G/	.	.
2.D/	4F/	2.a\	2.ff\
.	4G/	.	.
.	[2A/	.	.
4E/	.	4g\	4ee\
=11	=11	=11	=11
!	!LO:N:xstem:cue	!	!
2F/	4A/]	2f\	2dd\
.	4B/	.	.
2F/	4c/	2a\	2cc\
.	4d\	.	.
2.G/	4e\	2g\	2b/
.	8d\	.	.
.	8c\	.	.
.	4B/	2.g\	1cc\
4A/	4c/	.	.
=12	=12	=12	=12
2B\	2d\	.	.
.	.	4f\	.
2c\	2e\	4e/	2g/
.	.	4d/	.
2.F/	[1f	4c/	2.a/
.	.	4A/	.
.	.	[2d/	.
4F/	.	.	8g/
.	.	.	8a/
=13	=13	=13	=13
!	!LO:N:xstem:cue	!	!
0G	2f\]	2d/]	4b/
.	.	.	4g/
.	2e\	2g\	2.cc\
.	1d	1g	.
.	.	.	8b/
.	.	.	8a/
.	.	.	2b/
=14:|!!|:	=14:|!!|:	=14:|!!|:	=14:|!!|:
*>B	*	*	*
1C	2.e\	2r	1cc
.	.	2g\	.
.	4d\	.	.
2r	4c/	2cc\	1r
.	4d\	.	.
2C/	4e\	[2cc\	.
.	4f\	.	.
=15	=15	=15	=15
!	!	!LO:N:xstem:cue	!
2G/	2e\	4cc\]	1r
.	.	4cc\	.
2.G/	1d	2b\	.
.	.	2.a\	2r
4G/	.	.	.
2F/	2A/	.	2cc\
.	.	4b\	.
=16	=16	=16	=16
1E	2r	2cc\	2gg\
.	2G/	1b	2.gg\
[1D	2d\	.	.
.	.	.	4gg\
.	[2d\	2a\	2ff\
=17	=17	=17	=17
!LO:N:xstem:cue	!LO:N:xstem:cue	!	!
2D/]	4d\]	2g\	1ee
.	4d\	.	.
2C/	2c/	2a\	.
2G/	4B/	2.b\	1dd
.	4A/	.	.
[2G/	4B/	.	.
.	4c/	8a\	.
.	.	8g\	.
=18	=18	=18	=18
4G/]	2.d\	2b\	2r
4G/	.	.	.
2F/	.	2a\	2a/
.	4B/	.	.
2E/	2.e\	2g\	2cc\
2C/	.	[<2a\	[<2cc\
.	4e\	.	.
=19	=19	=19	=19
0D	2A/	2a\]	4cc\]
.	.	.	4cc\
.	2.d\	2.g\	2b/
.	.	.	1a
.	4A/	8f#X\	.
.	.	8e\	.
.	[2d\	2f#\	.
=20	=20	=20	=20
!	!LO:N:xstem:cue	!	!
1.G	4d\]	2.g\	1b
.	4c/	.	.
.	4B/	.	.
.	4A/	8f\	.
.	.	8e\	.
.	2B/	2d/	2r
2C/	2c/	2e/	2ee\
=21	=21	=21	=21
2.F/	0c	2.f\	2aa\
.	.	.	2.aa\
4G/	.	4f\	.
4A/	.	2f\	.
4B\	.	.	4gg\
[2c\	.	2e/	2gg\
=22	=22	=22	=22
2c\]	2r	1d	2.ff\
2B\	2B/	.	.
.	.	.	8gg\
.	.	.	8ff\
1c	2e\	2c/	2ee\
.	[2e\	4g\	[<2gg\
.	.	4a\	.
=23	=23	=23	=23
1.G	4e\]	4b\	2gg\]
.	4e\	4cc\	.
.	2d\	4dd\	2ff\
.	.	4cc\	.
.	2.g\	4b\	2ee\
.	.	4a\	.
2G/	.	2b\	2dd\
.	4f\	.	.
=24	=24	=24	=24
2A/	2e\	1.a	2cc\
1D	4d\	.	2.ff\
.	4c\	.	.
.	4d\	.	.
.	4e\	.	4ee\
2D/	2f\	2a\	[2dd\
=25	=25	=25	=25
2.E/	1e	0g	2dd\]
.	.	.	2.cc\
4F/	.	.	.
1G	1d	.	.
.	.	.	8b/
.	.	.	8a/
.	.	.	2b/
=26:|!!|:	=26:|!!|:	=26:|!!|:	=26:|!!|:
*>C	*	*	*
2.C/	2.e\	2g\	2cc\
.	.	2.g\	2.gg\
4D/	4d\	.	.
4E/	2.c/	.	.
4C/	.	4g\	4gg\
!LO:SIC:v:t=custos c	!	!LO:SIC:v:t=custos g	!LO:SIC:v:t=custos ee
2F/	.	2a\	2ff\
!	!LO:SIC:v:t=custos e	!	!
.	4d\	.	.
!!LO:PB:g=original
=27	=27	=27	=27
2.c\	4e\	2g\	2ee\
.	4f\	.	.
.	2g\	1cc	2ee\
4B\	.	.	.
2A/	2c/	.	2aa\
2E/	2g\	2cc\	2gg\
=28	=28	=28	=28
4F/	1a	1cc	2.ff\
4G/	.	.	.
4A/	.	.	.
4B\	.	.	4ff\
2c\	2g\	1cc	2ee\
[2F/	[2f\	.	[<2aa\
=29	=29	=29	=29
!	!LO:N:xstem:cue	!	!
4F/]	4f\]	1.cc	2aa\]
4F/	4f\	.	.
2E/	2g\	.	1gg
[1F	2.a\	.	.
.	.	2cc\	4ff\
.	4g\	.	4ee\
=30	=30	=30	=30
1F]	2f\	2.a\	4ff\
.	.	.	4cc\
.	1c	.	4ff\
.	.	4b\	4gg\
1F	.	2cc\	2aa\
.	[2f\	2a\	2ff\
=31	=31	=31	=31
00c	2f\]	00g	00gg
.	4e\	.	.
.	4d\	.	.
!	!	!	!
.	0.el	.	.
==	==	==	==
*-	*-	*-	*-
!!!system-decoration: s1,s2,s3,s4
!!!RDF**kern: > = above
!!!RDF**kern: < = below
!!!ENC: Filip Voros
!!!END: 2021-12-17
!!!RDF**kern: l = terminal long
